source/svgs/bowtie/uEA45-merge-duplicate.svg

<svg xmlns="http://www.w3.org/2000/svg" viewBox="0 0 448 448" enable-background="new 0 0 448 448"><path d="M344 288c-66.168 0-120-50.243-120-112v-113.373l51.883 51.882 22.627-22.628-90.51-90.508-90.51 90.509 22.627 22.628 51.883-51.883v113.373c0 61.757-53.832 112-120 112h-40v160h160v-160h-24.579c16.874-12.928 30.777-29.199 40.579-47.744 9.802 18.545 23.705 34.816 40.579 47.744h-24.579v160h160v-160h-40zm-184 32v96h-96v-96h96zm192 96h-96v-96h96v96z"/></svg>

<svg xmlns="http://www.w3.org/2000/svg" viewBox="0 0 448 448"><path d="M344 288c-66.168 0-120-50.243-120-112V62.627l51.883 51.882 22.627-22.628L208 1.373l-90.51 90.509 22.627 22.628L192 62.627V176c0 61.757-53.832 112-120 112H32v160h160V288h-24.579c16.874-12.928 30.777-29.199 40.579-47.744 9.802 18.545 23.705 34.816 40.579 47.744H224v160h160V288h-40zm-184 32v96H64v-96h96zm192 96h-96v-96h96v96z"/></svg>
